img/svg/placeholder-armor.svg

<svg width="512" height="512" viewBox="0 0 512 512" fill="none" xmlns="http://www.w3.org/2000/svg">
<path d="M350.29 21.1128L313.365 106.895L353.193 124.039L390.119 38.2568L350.289 21.1118L350.29 21.1128ZM161.928 21.4548L121.813 37.9148L157.266 124.315L197.381 107.855L161.929 21.4548H161.928ZM192.826 27.8048L184.693 31.2068L213.463 101.34L220.063 117.434L203.983 123.99L163.871 140.45L147.778 147.05L141.178 130.96L112.614 61.3698L101.514 66.0138C118.839 89.1728 126.621 118.096 123.255 146.822C119.889 175.547 105.631 201.888 83.421 220.414V256.884H176.931V334.932H83.42V349.197H176.93V427.355H83.42V465.693C100.22 482.493 178.115 490.887 256.012 490.887C333.908 490.887 411.804 482.493 428.604 465.693V427.355H335.092V349.21H428.604V334.93H335.062V256.783H428.57V220.323C406.36 201.797 392.102 175.456 388.736 146.731C385.37 118.005 393.152 89.0818 410.477 65.9228L399.137 61.1728L369.137 130.859L362.254 146.845L346.27 139.962L306.496 122.902L290.512 116.019L297.395 100.034L327.078 31.0638L319.186 27.8038C312.927 39.0711 303.768 48.4595 292.659 54.9961C281.55 61.5326 268.895 64.9795 256.006 64.9795C243.117 64.9795 230.462 61.5326 219.353 54.9961C208.244 48.4595 199.085 39.0721 192.826 27.8048ZM66 274.182V317.545H159.543V274.182H66ZM352.457 274.182V317.545H446V274.182H352.457ZM66 366.605V409.969H159.543V366.604H66V366.605ZM352.457 366.605V409.969H446V366.604H352.457V366.605Z" fill="#444856"/>
</svg>

<svg xmlns="http://www.w3.org/2000/svg" viewBox="0 0 512 512" style="height: 512px; width: 512px;"><g class="" transform="translate(0,0)" style=""><path d="m350.29 21.113-36.925 85.782 39.828 17.144 36.926-85.782-39.83-17.145zm-188.362.342-40.115 16.46 35.453 86.4 40.115-16.46-35.452-86.4zm30.898 6.35-8.133 3.402 28.77 70.133 6.6 16.094-16.08 6.556-40.112 16.46-16.093 6.6-6.6-16.09-28.564-69.59-11.1 4.644a112.952 112.952 0 0 1-18.093 154.4v36.47h93.51v78.048H83.42v14.265h93.51v78.158H83.42v38.338c16.8 16.8 94.695 25.194 172.592 25.194 77.896 0 155.792-8.394 172.592-25.194v-38.338h-93.512V349.21h93.512v-14.28h-93.542v-78.147h93.508v-36.46a112.952 112.952 0 0 1-18.093-154.4l-11.34-4.75-30 69.686-6.883 15.986-15.984-6.883-39.774-17.06-15.984-6.883 6.883-15.985 29.683-68.97-7.892-3.26a72.275 72.275 0 0 1-126.36 0zM66 274.182v43.363h93.543v-43.363H66zm286.457 0v43.363H446v-43.363h-93.543zM66 366.605v43.364h93.543v-43.365H66zm286.457 0v43.364H446v-43.365h-93.543z" fill="#fff" fill-opacity="1"></path></g></svg>
